img/general/question.svg

<svg id="Слой_1" xmlns="http://www.w3.org/2000/svg" width="18" height="18" viewBox="0 0 18 18"><style>.st0{opacity:.5;fill:#fff}</style><path class="st0" d="M4.5 1.2C5.9.4 7.4 0 9 0s3.1.4 4.5 1.2c1.4.8 2.5 1.9 3.3 3.3C17.6 5.9 18 7.4 18 9s-.4 3.1-1.2 4.5-1.9 2.5-3.3 3.3c-1.4.8-2.9 1.2-4.5 1.2s-3.1-.4-4.5-1.2C3.1 16 2 14.9 1.2 13.5.4 12.1 0 10.6 0 9s.4-3.1 1.2-4.5C2 3.1 3.1 2 4.5 1.2zm3 9.3h3s.1-.1.2-.1.2-.2.5-.4c.2-.2.4-.4.6-.7.2-.3.3-.6.5-1 .1-.4.2-.9.2-1.4 0-.5-.1-1-.3-1.3-.2-.4-.4-.7-.6-.9s-.6-.4-.9-.5l-.9-.3H9c-1 0-1.9.3-2.6.8-.7.6-1 1.5-1 2.8H8.1v-.1-.2c0-.1 0-.1.1-.1 0 0 0-.1.1-.1l.1-.1h.7c.2 0 .3.1.5.2.1.1.2.2.2.4s0 .4-.1.4c0 .1-.2.2-.4.3h-.2c-.1 0-.3.1-.5.2s-.4.2-.5.4c-.2.1-.3.4-.4.7-.2.3-.2.6-.2 1zm0 1.5v1.5h3V12h-3z"/></svg>

<?xml version="1.0" encoding="utf-8"?>
<!-- Generator: Adobe Illustrator 16.2.0, SVG Export Plug-In . SVG Version: 6.00 Build 0)  -->
<!DOCTYPE svg PUBLIC "-//W3C//DTD SVG 1.1//EN" "http://www.w3.org/Graphics/SVG/1.1/DTD/svg11.dtd">
<svg version="1.1" id="Слой_1" xmlns="http://www.w3.org/2000/svg" xmlns:xlink="http://www.w3.org/1999/xlink" x="0px" y="0px"
	 width="18px" height="18px" viewBox="0 0 18 18" style="enable-background:new 0 0 18 18;" xml:space="preserve">
<style type="text/css">
<![CDATA[
	.st0{opacity:0.5;fill:#FFFFFF;}
]]>
</style>
<path class="st0" d="M4.5,1.2C5.9,0.4,7.4,0,9,0c1.6,0,3.1,0.4,4.5,1.2C14.9,2,16,3.1,16.8,4.5C17.6,5.9,18,7.4,18,9
	c0,1.6-0.4,3.1-1.2,4.5s-1.9,2.5-3.3,3.3C12.1,17.6,10.6,18,9,18c-1.6,0-3.1-0.4-4.5-1.2C3.1,16,2,14.9,1.2,13.5
	C0.4,12.1,0,10.6,0,9c0-1.6,0.4-3.1,1.2-4.5C2,3.1,3.1,2,4.5,1.2z M7.5,10.5h3c0,0,0.1-0.1,0.2-0.1s0.2-0.2,0.5-0.4
	c0.2-0.2,0.4-0.4,0.6-0.7c0.2-0.3,0.3-0.6,0.5-1c0.1-0.4,0.2-0.9,0.2-1.4c0-0.5-0.1-1-0.3-1.3c-0.2-0.4-0.4-0.7-0.6-0.9
	S11,4.3,10.7,4.2S10.1,4,9.8,3.9c-0.2,0-0.5,0-0.8,0C8,3.9,7.1,4.2,6.4,4.7c-0.7,0.6-1,1.5-1,2.8h2.2c0,0,0.1,0,0.2,0
	c0.1,0,0.1,0,0.2,0s0.1,0,0.1,0c0,0,0-0.1,0-0.1s0-0.1,0-0.2c0-0.1,0-0.1,0.1-0.1c0,0,0-0.1,0.1-0.1c0,0,0,0,0.1-0.1
	c0,0,0.1,0,0.1,0c0,0,0.1,0,0.1,0s0.1,0,0.1,0c0,0,0.1,0,0.2,0c0.1,0,0.2,0,0.2,0c0.2,0,0.3,0.1,0.5,0.2c0.1,0.1,0.2,0.2,0.2,0.4
	c0,0.2,0,0.4-0.1,0.4c0,0.1-0.2,0.2-0.4,0.3c-0.1,0-0.1,0-0.2,0S8.8,8.3,8.6,8.4C8.4,8.5,8.2,8.6,8.1,8.8C7.9,8.9,7.8,9.2,7.7,9.5
	C7.5,9.8,7.5,10.1,7.5,10.5z M7.5,12v1.5h3V12H7.5z"/>
</svg>
